!!!COM: Beethoven
!!!OTL: Six Variations on an Original Theme
!!!Variation: Variation 1 a
**function	**harm	**kern	**kern
*	*	*clefG2	*clefG2
*	*	*k[f#c#]	*k[f#c#]
*M2/4	*M2/4	*M2/4	*M2/4
*D:	*D:	*D:	*D:
=17	=17	=17	=17
2T	2I	(16f#LL	(16aaLL
.	.	16a	16bb
.	.	16d	16aa
.	.	16aJJ	16ggJJ
.	.	16dLL	16ff#LL
.	.	16a	16gg
.	.	16f#	16aa
.	.	16aJJ	16gg#JJ
=18	=18	=18	=18
2T	2I	16f#LL	16aaLL
.	.	16a	16bb
.	.	16d	16aa
.	.	16aJJ	16ggJJ
.	.	16dLL	16ff#LL
.	.	16dd	16fff#
.	.	16cc#	16eee
.	.	16bJJ	16dddJJ
=19	=19	=19	=19
2T	2V	16aLL	16ccc#LL
.	.	16dd	16ccc
.	.	16g	16bb
.	.	16ddJJ	16dddJJ
.	.	16f#LL	16aaLL
.	.	16a	16gg#
.	.	16e	16gg
.	.	16aJJ	16aaJJ
=20	=20	=20	=20
2T	2I	16dLL	16ggLL
.	.	16a	16ff#
.	.	16e	16aa
.	.	16aJJ	16ggJJ
.	.	16eLL	16aaLL
.	.	16a	16gg
.	.	16e#	16aa
.	.	16aJJ	16gg#JJ
=21	=21	=21	=21
2T	2I	16f#LL	16aaLL
.	.	16a	16bb
.	.	16d	16aa
.	.	16aJJ	16ggJJ
.	.	16dLL	16ff#LL
.	.	16a	16gg
.	.	16f#	16aa
.	.	16aJJ	16gg#JJ
=22	=22	=22	=22
2T	2I	16f#LL	16aaLL
.	.	16a	16bb
.	.	16d	16aa
.	.	16aJJ	16ggJJ
.	.	16dLL	16ff#LL
.	.	16dd	16fff#
.	.	16cc#	16eee
.	.	16bJJ	16dddJJ
=23	=23	=23	=23
4T	4V	16aLL	16ccc#LL
.	.	16dd	16ccc
.	.	16g	16bb
.	.	16ddJJ	16dddJJ
8T	8I	16f#LL	16aaLL
.	.	16dd	16gg#
8D	8V7/vi	16f#	16aa
.	.	16eeJJ	16aa#JJ
=24	=24	=24	=24
8T	8vi	16bLL	16bbLL
.	.	16dd	16ccc#
4T	4Vb	16f#	16bb
.	.	16bJJ	16aa#JJ
.	.	16dLL	16bbLL
.	.	16f#	16aa#
8T	8I	16d	16bb
.	.	16c#JJ)	16ccc#JJ)
*-	*-	*-	*-
